X: 9240
T: Dan Griffin's
R: polka
M: 2/4
K: Amajor
ec|Bc/B/ AB|cd/c/ BA|f2 ec|e2 ec|
Bc/B/ AB|cd/c/ BA|FE FA|B2 ec|
Bc/B/ AB|cd/c/ BA|f2 ec|e2 ec|
Bc/B/ AB|cd/c/ BA|FE FA|B2 B2||
ce ec|Bc/B/ A2|a2 g/f/e|f2>e2|
ce ec|Bc/B/ AB|ce/c/ BA|[F2d2]>B2|
ce ec|Bc/B/ A2|a2 g/f/e|f2 ec|
Bc/B/ AB|ce/c/ BA|FE FA|B2||

